X: 30533
M: 6/8
L: 1/8
K: F
cdc BAB | c2A F2A | G2G GAB | A2G F2 A/B/ |\
cdc BAB | c2A F2A | G2G G2A | F3- F2 :|
d |\
def fed | c2A A2c | def fed | c2A A2c |\


